svgs/sharp-duotone-thin/hourglass-start.svg

<svg xmlns="http://www.w3.org/2000/svg" viewBox="0 0 384 512"><!--! Font Awesome Pro 7.1.0 by @fontawesome - https://fontawesome.com License - https://fontawesome.com/license (Commercial License) Copyright 2025 Fonticons, Inc. --><path opacity=".4" fill="currentColor" d="M48 80l288 0 0 60-144 106.1-144-106.1 0-60z"/><path fill="currentColor" d="M0 0l384 0 0 16-32 0 0 132-3.3 2.4-143.3 105.6 143.3 105.6 3.3 2.4 0 132 32 0 0 16-384 0 0-16 32 0 0-132 3.3-2.4 143.3-105.6-143.3-105.6-3.3-2.4 0-132-32 0 0-16zM48 16l0 48 288 0 0-48-288 0zm0 64l0 60 144 106.1 144-106.1 0-60-288 0zm0 292l0 124 288 0 0-124-144-106.1-144 106.1z"/></svg>

<svg xmlns="http://www.w3.org/2000/svg" viewBox="0 0 384 512"><!--! Font Awesome Pro 6.7.2 by @fontawesome - https://fontawesome.com License - https://fontawesome.com/license (Commercial License) Copyright 2024 Fonticons, Inc. --><defs><style>.fa-secondary{opacity:.4}</style></defs><path class="fa-secondary" d="M48 80l288 0 0 60L192 246.1 48 140l0-60z"/><path class="fa-primary" d="M0 0L8 0 376 0l8 0 0 16-8 0-24 0 0 128 0 4-3.3 2.4L205.5 256 348.7 361.6 352 364l0 4 0 128 24 0 8 0 0 16-8 0L8 512l-8 0 0-16 8 0 24 0 0-128 0-4 3.3-2.4L178.5 256 35.3 150.4 32 148l0-4L32 16 8 16 0 16 0 0zM48 16l0 48 288 0 0-48L48 16zm0 64l0 60L192 246.1 336 140l0-60L48 80zm0 292l0 124 288 0 0-124L192 265.9 48 372z"/></svg>
